svg/pencil_outline.svg

<svg xmlns="http://www.w3.org/2000/svg" viewBox="0 0 24 24"><path d="m14.06 9 .94.94L5.92 19H5v-.92zm3.6-6c-.25 0-.51.1-.7.29l-1.83 1.83 3.75 3.75 1.83-1.83c.39-.39.39-1.04 0-1.41l-2.34-2.34c-.2-.2-.45-.29-.71-.29m-3.6 3.19L3 17.25V21h3.75L17.81 9.94z"/></svg>

<?xml version="1.0" encoding="UTF-8"?><!DOCTYPE svg PUBLIC "-//W3C//DTD SVG 1.1//EN" "http://www.w3.org/Graphics/SVG/1.1/DTD/svg11.dtd"><svg xmlns="http://www.w3.org/2000/svg" xmlns:xlink="http://www.w3.org/1999/xlink" version="1.1" id="mdi-pencil-outline" width="24" height="24" viewBox="0 0 24 24"><path d="M14.06,9L15,9.94L5.92,19H5V18.08L14.06,9M17.66,3C17.41,3 17.15,3.1 16.96,3.29L15.13,5.12L18.88,8.87L20.71,7.04C21.1,6.65 21.1,6 20.71,5.63L18.37,3.29C18.17,3.09 17.92,3 17.66,3M14.06,6.19L3,17.25V21H6.75L17.81,9.94L14.06,6.19Z" /></svg>
